X:1
T:The Mountains of Mourne
M:6/8
L:1/8
Q:80
C:
S:March 6/8
K:HP
|: A | \
{GAG}A/2f3/2e{gfg}f/2e3/2d | \
{gef}e/2d3/2{gdc}d{g}d3/2cB | \
{gBd}B/2{e}A3/2{GAG}A{g}A3/2B/2{d}c |
{gef}e/2d3/2{gdc}d{g}d2 :| \
A | \
{GAG}A/2{gf}g3/2f{a}g/2a3/2g | \
{a}g/2f3/2e{gfg}f2A |
{GAG}A{dc}d3/2f{ag}a3/2g/2f | \
{gfg}f/2e3/2d{gef}e2A | \
{GAG}A/2f3/2e{gfg}f/2e3/2d |
{gef}e/2d3/2{gdc}d{g}d3/2cB | \
{gBd}B/2{e}A3/2{GAG}A{g}A3/2B/2{d}c | \
{gef}e/2d3/2{gdc}d{g}d2|]
